X:1
T:Do They Think of Me At Home?
T:Do They Think of Me At Home?
T:Voice and Piano
T:Charles W. Glover (1797-1868) circ. 1851
T:J. E. Carpenter
T:by Mutopia-2014/11/13-437
T:by Mutopia-2014/11/13-437
C:Charles W. Glover (1797-1868)
C:circ. 1851
Z:J. E. Carpenter
Z:by Mutopia-2014/11/13-437
%%score 1 { ( 2 4 ) | 3 }
L:1/8
Q:1/4=76
M:3/4
K:F
V:1 treble nm="Voice"
V:2 treble nm="Piano"
V:4 treble 
V:3 bass 
V:1
"^Andante With feeling"!p! A B | A3 G A G | F4 G F |!<(! E!<)! d3!>(! c!>)! G | A4 A B | A3 G A G | %6
w: Do they|think of me at|home, Do they|ev\- er think of|me? I who|shared their ev- *|
w: Do they|think of me at|eve, Of the|song I used to|sing? Is the|harp I struck un\-|
w: Do they|think of how I|loved, In my|hap\- py, ear\- ly|days? Do they|think of him who|
 F4 F G |!<(! (3(A C) B!<)!!>(! A3 G!>)! | F3!mf! z G F | E3!<(! E F ^F!<)! | G4 E c | %11
w: 'ry grief, I|who * min\- gled in|their glee? Have|their hearts grown cold|and strange, To|
w: touch'd, Does a|stran\- * ger wake the|String? Will no|kind for\- giv\- ing|word, Come a\-|
w: came, But cuold|nev\- * er win their|praise? I am|hap\- py by his|side, And from|
 =B3!>(! D F3/2 E/!>)! | (C2 !fermata!_B)!p! z A B | A3 G A G | F4 G F |!<(! E3 d!<)! c G | %16
w: the one now doom'd|to * roam? I|would give the world|to know Do|they think of me|
w: cross the rag\- ing|foam? * Shall I|nev\- er cease to|sigh "Do they|think of me at|
w: mine he'll nev\- er|roam. * But my|hearth will sad\- ly|ask, "Do they|ev er think of|
 A4 A B |!<(! c3 d A c!<)! |!mf! B4 A G |!>(! F C A3 G!>)! | F4!D.C.! |] %21
w: at home? I|would give the world|to know Do|they think of me at|home?|
w: home?" Shall I|nev\- er cease to|sigh "Do they|think of me at|home?"|
w: me But my|hearth will sad\- ly|ask, "Do they|think of me at|Home?"|
V:2
!p! ([CFA][DFB]) | [CEA]3 ([B,EG][CEA][B,EG]) | [A,CF]4 ([B,CG][A,CF]) | %3
!<(! ([B,E] [EBd]3)!<)!!>(! ([EGc]!>)![EG]) | [CFA]4 ([CFA][DFB]) | [^CEA]3 (G[A,EA]G) | %6
 [A,DF]4 ([=B,F][B,FG]) |!<(! (3([CFA]C!<)!_B)!>(! (A3!>)! G) | F3!mf! z ([EG][DF]) | %9
 [CE]3!<(! [CE][DF][^D^F]!<)! | [EG]4 [CE][CEc] | [DF=B]3!>(! [=B,D][B,F]>E!>)! | %12
 (C2 !fermata!_B)!p! z [CEA][DFB] | [CEA]3 [B,EG][CEA][B,EG] | [A,CF]4 [CG][CF] | %15
!<(! [B,E]3 [EBd][Ec]!<)![EG] | [CFA]4 [CFA][CFB] |!<(! c3 d Ac!<)! |!mf! [DGB]4 [B,=FA][B,FG] | %19
!>(! [A,F]C (A3 G)!>)! | [A,CF]4 |] %21
V:3
 z2 | [C,,C,]2 [C,,C,]2 z2 | (F,2 F,,2) z2 | [C,,C,]2 [C,,C,]2 z2 | (F,2 F,,2) z2 | %5
 [A,,,A,,]4 [^C,,^C,]2 | [D,,D,]2 ([D,,D,]2 [_D,,_D,]2) | [C,,C,]2 [C,C]3 [D,B,] | %8
 ([F,A,]2 F,,) z z2 | [C,G,]4 [C,G,]2 | [C,G,]4 [C,G,]2 | [G,,G,]2 [G,,G,]2 [G,,G,]2 | %12
 !fermata![C,E,G,]3 z z2 | [C,,C,]2 [C,,C,]2 z2 | (F,2 F,,2) [E,,E,][F,,F,] | ([G,,G,]2 C,2) C,2 | %16
 (F,2 F,,2) z2 | [D,,D,]2 [D,,D,]2 z2 | [G,,G,]4 [_D,,_D,]2 | [C,,C,]2 [C,,C,]2- [C,,C,]2 | %20
 [F,,F,]4 |] %21
V:4
 x2 | x6 | x6 | x6 | x6 | x6 | x4 z2 | x2 E4 | x6 | x6 | x6 | x6 | x6 | x6 | x6 | x6 | x4 z2 | %17
 [D^F]4 [DF]2 | x6 | x2 [B,E]4 | x4 |] %21

